src/images/badges/doka-dog-help-100.svg

<svg width="40" height="40" viewBox="0 0 40 40" fill="none" xmlns="http://www.w3.org/2000/svg">
<path d="M39 10C39 5.02944 34.9706 1 30 1L10 1C5.02944 1 1 5.02944 1 10V30C1 34.9706 5.02944 39 10 39H30C34.9706 39 39 34.9706 39 30V10Z" fill="#FF8630"/>
<path d="M4.46619 13.5297V8.90808C4.46619 8.62565 4.62024 8.44592 4.877 8.44592C5.10808 8.44592 5.28781 8.59998 5.28781 8.90808V13.5297C5.28781 15.0702 5.95538 15.6865 7.03375 15.6865C8.13781 15.6865 8.80538 15.0702 8.80538 13.5297V8.90808C8.80538 8.62565 8.95943 8.44592 9.21619 8.44592C9.47294 8.44592 9.627 8.59998 9.627 8.90808V13.5297C9.627 15.3527 8.7797 16.4567 7.03375 16.4567C5.31348 16.4567 4.46619 15.3527 4.46619 13.5297Z" fill="black"/>
<path d="M12.8108 12.4513C12.8108 12.0662 13.0932 11.8094 13.5041 11.8094C13.9149 11.8094 14.1973 12.0918 14.1973 12.4513C14.1973 12.8107 13.9149 13.0932 13.5041 13.0932C13.1189 13.0932 12.8108 12.8364 12.8108 12.4513Z" fill="black"/>
<path fill-rule="evenodd" clip-rule="evenodd" d="M10.5 12.4513C10.5 10.2175 11.527 8.47156 13.5041 8.47156C15.4811 8.47156 16.5081 10.2175 16.5081 12.4513C16.5081 14.7107 15.4811 16.4567 13.5041 16.4567C11.527 16.4567 10.5 14.7107 10.5 12.4513ZM15.6865 12.4513C15.6865 10.6026 14.8905 9.21615 13.5041 9.21615C12.1176 9.21615 11.3216 10.6026 11.3216 12.4513C11.3216 14.2999 12.1176 15.6864 13.5041 15.6864C14.8905 15.6864 15.6865 14.2999 15.6865 12.4513Z" fill="black"/>
<path d="M17.8432 15.8662C17.6378 15.8662 17.4838 16.0459 17.4838 16.2257C17.4838 16.5338 17.7919 16.6108 18.1 16.6365C18.9986 16.6365 19.5378 16.0716 19.9743 15.4811C20.4108 16.0716 20.95 16.6365 21.8486 16.6365C22.1824 16.6365 22.4648 16.5338 22.4648 16.2257C22.4648 16.0459 22.3108 15.8662 22.1054 15.8662C22.0697 15.8662 22.0229 15.8717 21.9727 15.8777C21.9148 15.8845 21.8523 15.8919 21.7973 15.8919C21.3865 15.8919 20.873 15.3527 20.5905 14.9419C21.1811 14.3257 21.7973 13.5554 21.7973 12.6824C21.7973 11.6811 21.027 10.9622 19.9743 10.9622C18.9216 10.9622 18.1513 11.6811 18.1513 12.6824C18.1513 13.5297 18.7932 14.3257 19.3581 14.9419C19.0757 15.327 18.5878 15.8919 18.1513 15.8919C18.1128 15.8919 18.0551 15.8855 17.9973 15.8791C17.9396 15.8726 17.8818 15.8662 17.8432 15.8662Z" fill="black"/>
<path d="M25.777 12.4513C25.777 12.0662 26.0594 11.8094 26.4702 11.8094C26.8811 11.8094 27.1635 12.0918 27.1635 12.4513C27.1635 12.8107 26.8811 13.0932 26.4702 13.0932C26.0594 13.0932 25.777 12.8364 25.777 12.4513Z" fill="black"/>
<path fill-rule="evenodd" clip-rule="evenodd" d="M23.4662 12.4513C23.4662 10.2175 24.4932 8.47156 26.4702 8.47156C28.4473 8.47156 29.4743 10.2175 29.4743 12.4513C29.4743 14.7107 28.4473 16.4567 26.4702 16.4567C24.4932 16.4567 23.4662 14.7107 23.4662 12.4513ZM28.627 12.4513C28.627 10.6026 27.8311 9.21615 26.4446 9.21615C25.0581 9.21615 24.2621 10.6026 24.2621 12.4513C24.2621 14.2999 25.0581 15.6864 26.4446 15.6864C27.8311 15.6864 28.627 14.2999 28.627 12.4513Z" fill="black"/>
<path d="M30.373 8.90808V13.5297C30.373 15.3527 31.2203 16.4567 32.9405 16.4567C34.6865 16.4567 35.5338 15.3527 35.5338 13.5297V8.90808C35.5338 8.59998 35.3797 8.44592 35.123 8.44592C34.8662 8.44592 34.7121 8.62565 34.7121 8.90808V13.5297C34.7121 15.0702 34.0446 15.6865 32.9405 15.6865C31.8621 15.6865 31.1946 15.0702 31.1946 13.5297V8.90808C31.1946 8.59998 31.0148 8.44592 30.7838 8.44592C30.527 8.44592 30.373 8.62565 30.373 8.90808Z" fill="black"/>
<path fill-rule="evenodd" clip-rule="evenodd" d="M18.9729 29.9365C18.9729 30.8609 19.3581 31.4771 19.9743 31.4771C20.5905 31.4771 20.9757 30.8609 20.9757 29.9365C20.9757 29.0122 20.5905 28.396 19.9743 28.396C19.3581 28.396 18.9729 28.9865 18.9729 29.9365ZM19.9743 30.3473C20.2296 30.3473 20.4365 30.1519 20.4365 29.9109C20.4365 29.6698 20.2296 29.4744 19.9743 29.4744C19.7191 29.4744 19.5121 29.6698 19.5121 29.9109C19.5121 30.1519 19.7191 30.3473 19.9743 30.3473Z" fill="black"/>
<path fill-rule="evenodd" clip-rule="evenodd" d="M23.8513 31.4771C23.2351 31.4771 22.85 30.8609 22.85 29.9365C22.85 28.9865 23.2351 28.396 23.8513 28.396C24.4675 28.396 24.8527 29.0122 24.8527 29.9365C24.8527 30.8609 24.4675 31.4771 23.8513 31.4771ZM24.3135 29.9109C24.3135 30.1519 24.1066 30.3473 23.8513 30.3473C23.5961 30.3473 23.3892 30.1519 23.3892 29.9109C23.3892 29.6698 23.5961 29.4744 23.8513 29.4744C24.1066 29.4744 24.3135 29.6698 24.3135 29.9109Z" fill="black"/>
<path fill-rule="evenodd" clip-rule="evenodd" d="M23.9797 25.8798H16.1487C13.8635 25.9054 12.1432 27.6257 12.1432 29.9365C12.1432 32.1446 13.7351 33.8392 15.8919 33.9676V33.9933H23.8C26.1108 33.9933 27.8568 32.2473 27.8568 29.9365C27.8568 27.6771 26.2135 25.9568 23.9797 25.8798ZM17.0932 31.3859C17.2246 31.3799 17.3482 31.3743 17.4324 31.3743C17.6378 31.3743 17.7662 31.5027 17.7662 31.6824C17.7662 31.8622 17.6378 31.9906 17.4324 31.9906H14.8905C14.6851 31.9906 14.5567 31.8622 14.5567 31.6824C14.5567 31.5027 14.6851 31.3743 14.8905 31.3743C14.9978 31.3743 15.1603 31.3798 15.3345 31.3858C15.5356 31.3926 15.7525 31.4 15.9175 31.4H15.9946V28.55L15.1216 29.0379C14.9932 29.0892 14.9162 29.1149 14.8392 29.1149C14.6851 29.1149 14.5567 28.9865 14.5567 28.8068C14.5567 28.6784 14.6338 28.5757 14.7878 28.4987L15.9946 27.9081C16.0716 27.8568 16.2 27.8054 16.3284 27.8054C16.5081 27.8054 16.6108 27.9338 16.6108 28.1392V31.4H16.6621C16.7849 31.4 16.9441 31.3927 17.0932 31.3859ZM18.3311 29.9109C18.3311 28.6271 18.9729 27.7798 19.9743 27.7798C20.9756 27.7798 21.6175 28.6271 21.6175 29.9109C21.6175 31.2203 20.9756 32.0676 19.9743 32.0676C18.9729 32.0676 18.3311 31.2203 18.3311 29.9109ZM23.8513 27.7798C22.85 27.7798 22.2081 28.6271 22.2081 29.9109C22.2081 31.2203 22.85 32.0676 23.8513 32.0676C24.8527 32.0676 25.4946 31.2203 25.4946 29.9109C25.4946 28.6271 24.8527 27.7798 23.8513 27.7798Z" fill="black"/>
<path d="M5.36485 21.5149C5.54458 21.5149 5.67296 21.6433 5.74999 21.7716L12.1689 32.5554C12.2203 32.6325 12.2459 32.7095 12.2459 32.8122C12.2459 33.0689 12.0919 33.223 11.8351 33.223C11.6554 33.223 11.527 33.0946 11.45 32.9662L5.03107 22.1825C4.97972 22.1054 4.95404 22.0284 4.95404 21.9257C4.95404 21.6689 5.10809 21.5149 5.36485 21.5149Z" fill="black"/>
<path d="M34.6351 21.5405C34.4554 21.5405 34.327 21.6689 34.25 21.7973L27.8311 32.5811C27.7797 32.6581 27.754 32.7608 27.754 32.8378C27.754 33.0689 27.9081 33.2486 28.1648 33.2486C28.3446 33.2486 28.4729 33.1203 28.55 32.9919L34.9689 22.2081C35.0202 22.1311 35.0459 22.0284 35.0459 21.9513C35.0459 21.6946 34.8919 21.5405 34.6351 21.5405Z" fill="black"/>
</svg>

<svg xmlns="http://www.w3.org/2000/svg" width="40" height="40" fill="none"><path fill="#FF8630" d="M39 10a9 9 0 0 0-9-9H10a9 9 0 0 0-9 9v20a9 9 0 0 0 9 9h20a9 9 0 0 0 9-9V10Z"/><path fill="#000" d="M4.466 13.53V8.908c0-.282.154-.462.411-.462.231 0 .41.154.41.462v4.622c0 1.54.668 2.157 1.747 2.157 1.104 0 1.771-.617 1.771-2.157V8.908c0-.282.154-.462.411-.462s.411.154.411.462v4.622c0 1.823-.847 2.927-2.593 2.927-1.72 0-2.568-1.104-2.568-2.927ZM12.81 12.451c0-.385.283-.642.694-.642.41 0 .693.283.693.642 0 .36-.282.642-.693.642-.385 0-.693-.257-.693-.642Z"/><path fill="#000" fill-rule="evenodd" d="M10.5 12.451c0-2.234 1.027-3.98 3.004-3.98s3.004 1.746 3.004 3.98c0 2.26-1.027 4.006-3.004 4.006S10.5 14.71 10.5 12.45Zm5.187 0c0-1.848-.796-3.235-2.183-3.235-1.386 0-2.182 1.387-2.182 3.235 0 1.849.796 3.235 2.182 3.235s2.183-1.386 2.183-3.235Z" clip-rule="evenodd"/><path fill="#000" d="M17.843 15.866c-.205 0-.36.18-.36.36 0 .308.309.385.617.41.899 0 1.438-.564 1.874-1.155.437.59.976 1.156 1.875 1.156.333 0 .616-.103.616-.411 0-.18-.154-.36-.36-.36-.035 0-.082.006-.132.012-.058.006-.12.014-.176.014-.41 0-.924-.54-1.207-.95.591-.616 1.207-1.387 1.207-2.26 0-1-.77-1.72-1.823-1.72-1.052 0-1.823.72-1.823 1.72 0 .848.642 1.644 1.207 2.26-.282.385-.77.95-1.207.95-.038 0-.096-.006-.154-.013a1.618 1.618 0 0 0-.154-.013ZM25.777 12.451c0-.385.282-.642.693-.642s.694.283.694.642c0 .36-.283.642-.694.642-.41 0-.693-.257-.693-.642Z"/><path fill="#000" fill-rule="evenodd" d="M23.466 12.451c0-2.234 1.027-3.98 3.004-3.98s3.004 1.746 3.004 3.98c0 2.26-1.027 4.006-3.004 4.006s-3.004-1.746-3.004-4.006Zm5.161 0c0-1.848-.796-3.235-2.182-3.235-1.387 0-2.183 1.387-2.183 3.235 0 1.849.796 3.235 2.183 3.235 1.386 0 2.182-1.386 2.182-3.235Z" clip-rule="evenodd"/><path fill="#000" d="M30.373 8.908v4.622c0 1.823.847 2.927 2.567 2.927 1.747 0 2.594-1.104 2.594-2.927V8.908c0-.308-.154-.462-.411-.462s-.41.18-.41.462v4.622c0 1.54-.668 2.157-1.773 2.157-1.078 0-1.745-.617-1.745-2.157V8.908c0-.308-.18-.462-.411-.462-.257 0-.411.18-.411.462Z"/><path fill="#000" fill-rule="evenodd" d="M18.973 29.936c0 .925.385 1.541 1.001 1.541.616 0 1.002-.616 1.002-1.54 0-.925-.386-1.541-1.002-1.541s-1.001.59-1.001 1.54Zm1.001.411a.45.45 0 0 0 .462-.436.45.45 0 0 0-.462-.437.45.45 0 0 0-.462.437.45.45 0 0 0 .462.436ZM23.851 31.477c-.616 0-1.001-.616-1.001-1.54 0-.95.385-1.541 1.001-1.541.617 0 1.002.616 1.002 1.54 0 .925-.386 1.541-1.002 1.541Zm.463-1.566a.45.45 0 0 1-.463.436.45.45 0 0 1-.462-.436.45.45 0 0 1 .462-.437.45.45 0 0 1 .463.437Z" clip-rule="evenodd"/><path fill="#000" fill-rule="evenodd" d="M23.98 25.88h-7.831c-2.286.025-4.006 1.746-4.006 4.056 0 2.209 1.592 3.903 3.749 4.032v.025H23.8c2.31 0 4.057-1.746 4.057-4.057 0-2.259-1.643-3.98-3.877-4.056Zm-6.887 5.506c.132-.006.255-.012.34-.012.205 0 .333.129.333.308 0 .18-.128.309-.334.309h-2.541c-.206 0-.334-.129-.334-.309s.128-.308.333-.308c.108 0 .27.006.444.012.202.007.418.014.584.014h.077v-2.85l-.873.488c-.129.051-.206.077-.283.077-.154 0-.282-.128-.282-.308 0-.129.077-.231.23-.308l1.208-.59a.643.643 0 0 1 .333-.104c.18 0 .283.129.283.334V31.4h.051c.123 0 .282-.007.431-.014Zm1.238-1.475c0-1.284.642-2.131 1.643-2.131 1.002 0 1.643.847 1.643 2.13 0 1.31-.641 2.158-1.643 2.158-1.001 0-1.643-.848-1.643-2.157Zm5.52-2.131c-1.001 0-1.643.847-1.643 2.13 0 1.31.642 2.158 1.643 2.158 1.002 0 1.644-.848 1.644-2.157 0-1.284-.642-2.131-1.644-2.131Z" clip-rule="evenodd"/><path fill="#000" d="M5.365 21.515c.18 0 .308.128.385.257l6.419 10.783a.434.434 0 0 1 .077.257c0 .257-.154.411-.41.411-.18 0-.309-.128-.386-.257L5.031 22.182a.434.434 0 0 1-.077-.256c0-.257.154-.411.41-.411ZM34.635 21.54c-.18 0-.308.129-.385.257l-6.419 10.784a.495.495 0 0 0-.077.257c0 .23.154.41.41.41.18 0 .309-.128.386-.256l6.419-10.784a.496.496 0 0 0 .077-.257c0-.256-.154-.41-.41-.41Z"/></svg>
